X: 28
T:North Side of the Grampians
M:4/4
L:1/8
C:Simon Fraser
R:Strathspey
K:C
F|"C"E>F G>A G<EE<c|"C"E/F/G G<c "G"c<e d2|"C"E>F G>A G<EE<c|
"G"F>D B,<G, B,/C/D F:|!
f|"C"e>c e/f/g e<cc>f|"C"e<ce>f "C"e/f/g "G"f/g/a|"C"e>c e/f/g e<cc>e|
"G"f>d B<G B/c/d f|!
"C"e>c e/f/g e<cc>f|"C"e<ce>f "C"e/f/g "G"f/g/a|"C"(3gfe (3dcB "Am"(3cBA
 (3GFE|
"G"F>D B,<G, B,/C/D F||
